source/img/footer-phone.svg

<svg xmlns="http://www.w3.org/2000/svg" width="14" height="13"><defs><filter id="a"><feFlood flood-color="#41CDB8" flood-opacity="1" result="floodOut"/><feComposite operator="atop" in="floodOut" in2="SourceGraphic" result="compOut"/><feBlend in="compOut" in2="SourceGraphic"/></filter></defs><g filter="url(#a)"><path fill-rule="evenodd" fill="#666" d="M12.994 10.675c-.368 1.202-1.747 2.075-3.277 2.074a4.16 4.16 0 01-.448-.025c-1.86-.245-4.037-1.416-5.828-3.133C1.556 7.939.279 5.944.027 4.253-.229 2.541.607 1.265 2.262.838A1.07 1.07 0 012.53.805c.969 0 2.124 1.255 2.525 2.156.261.586.241 1.038-.057 1.306-.75.673-1.029 1.083-.997 1.46.037.421.464.907 1.189 1.604.093.089.216.208.356.336.13.118.254.228.364.324.811.709 1.339 1.092 1.814 1.092.396 0 .824-.256 1.529-.915.106-.1.303-.219.635-.219.874 0 2.108.782 2.712 1.512.366.443.502.862.394 1.214z"/></g></svg>

<svg 
 xmlns="http://www.w3.org/2000/svg"
 xmlns:xlink="http://www.w3.org/1999/xlink"
 width="14px" height="13px">
<defs>
<filter id="Filter_0">
    <feFlood flood-color="rgb(65, 205, 184)" flood-opacity="1" result="floodOut" />
    <feComposite operator="atop" in="floodOut" in2="SourceGraphic" result="compOut" />
    <feBlend mode="normal" in="compOut" in2="SourceGraphic" />
</filter>

</defs>
<g filter="url(#Filter_0)">
<path fill-rule="evenodd"  fill="rgb(102, 102, 102)"
 d="M12.994,10.675 C12.626,11.877 11.247,12.750 9.717,12.749 C9.567,12.749 9.416,12.740 9.269,12.724 C7.409,12.479 5.232,11.308 3.441,9.591 C1.556,7.939 0.279,5.944 0.027,4.253 C-0.229,2.541 0.607,1.265 2.262,0.838 C2.347,0.816 2.437,0.805 2.530,0.805 C3.499,0.805 4.654,2.060 5.055,2.961 C5.316,3.547 5.296,3.999 4.998,4.267 C4.248,4.940 3.969,5.350 4.001,5.727 C4.038,6.148 4.465,6.634 5.190,7.331 C5.283,7.420 5.406,7.539 5.546,7.667 C5.676,7.785 5.800,7.895 5.910,7.991 C6.721,8.700 7.249,9.083 7.724,9.083 C8.120,9.083 8.548,8.827 9.253,8.168 C9.359,8.068 9.556,7.949 9.888,7.949 C10.762,7.949 11.996,8.731 12.600,9.461 C12.966,9.904 13.102,10.323 12.994,10.675 Z"/>
</g>
</svg>
